spyder/images/light/last_edit_location.svg

<svg width="24" height="24" viewBox="0 0 24 24" fill="none" xmlns="http://www.w3.org/2000/svg">
<path fill-rule="evenodd" clip-rule="evenodd" d="M9.29289 17.7071C9.10536 17.5196 9 17.2652 9 17V5C9 4.73478 9.10536 4.48043 9.29289 4.29289C9.48043 4.10536 9.73478 4 10 4H12V2H9.5C8.95 2 8 2.45 8 3C8 2.45 7.05 2 6.5 2H4V4H6C6.26522 4 6.51957 4.10536 6.70711 4.29289C6.89464 4.48043 7 4.73478 7 5V17C7 17.2652 6.89464 17.5196 6.70711 17.7071C6.51957 17.8946 6.26522 18 6 18H4V20H6.5C7.05 20 8 19.55 8 19C8 19.55 8.95 20 9.5 20H12L10 18C9.73478 18 9.48043 17.8946 9.29289 17.7071Z" fill="#37414F"/>
<path d="M22 15.8056V17.1944H13.6667L17.4861 21.0139L16.5 22L11 16.5L16.5 11L17.4861 11.9861L13.6667 15.8056H22Z" fill="#37414F"/>
</svg>

<svg xmlns="http://www.w3.org/2000/svg" width="24" height="24" fill="none"><path fill="#37414F" fill-rule="evenodd" d="M9.293 17.707A1 1 0 0 1 9 17V5a1 1 0 0 1 1-1h2V2H9.5C8.95 2 8 2.45 8 3c0-.55-.95-1-1.5-1H4v2h2a1 1 0 0 1 1 1v12a1 1 0 0 1-1 1H4v2h2.5c.55 0 1.5-.45 1.5-1 0 .55.95 1 1.5 1H12l-2-2a1 1 0 0 1-.707-.293Z" clip-rule="evenodd"/><path fill="#37414F" d="M22 15.806v1.388h-8.333l3.82 3.82L16.5 22 11 16.5l5.5-5.5.986.986-3.82 3.82H22Z"/></svg>
